public/library/orbital-icon-light.svg

<svg width="14" height="14" viewBox="0 0 14 14" fill="none" xmlns="http://www.w3.org/2000/svg">
<path d="M6.9987 13.6666C3.3168 13.6666 0.332031 10.6818 0.332031 6.99992C0.332031 3.31802 3.3168 0.333252 6.9987 0.333252C10.6806 0.333252 13.6654 3.31802 13.6654 6.99992C13.6654 10.6818 10.6806 13.6666 6.9987 13.6666ZM5.47204 12.1115C4.83032 10.7505 4.43691 9.24938 4.35024 7.66658H1.70662C1.9707 9.78425 3.47629 11.5164 5.47204 12.1115ZM5.68583 7.66658C5.7861 9.29245 6.25056 10.8197 6.9987 12.1679C7.74683 10.8197 8.2113 9.29245 8.31156 7.66658H5.68583ZM12.2908 7.66658H9.64716C9.5605 9.24938 9.1671 10.7505 8.52536 12.1115C10.5211 11.5164 12.0267 9.78425 12.2908 7.66658ZM1.70662 6.33325H4.35024C4.43691 4.75043 4.83032 3.2493 5.47204 1.88829C3.47629 2.48347 1.9707 4.21558 1.70662 6.33325ZM5.68583 6.33325H8.31156C8.2113 4.7074 7.74683 3.18009 6.9987 1.83191C6.25056 3.18009 5.7861 4.7074 5.68583 6.33325ZM8.52536 1.88829C9.1671 3.2493 9.5605 4.75043 9.64716 6.33325H12.2908C12.0267 4.21558 10.5211 2.48347 8.52536 1.88829Z" fill="white"/>
</svg>

<svg xmlns="http://www.w3.org/2000/svg" width="14" height="14" fill="none" viewBox="0 0 14 14"><path fill="#fff" d="M6.999 13.667a6.667 6.667 0 1 1 0-13.334 6.667 6.667 0 0 1 0 13.334M5.472 12.11A11.9 11.9 0 0 1 4.35 7.667H1.707a5.34 5.34 0 0 0 3.765 4.445m.214-4.444c.1 1.625.565 3.153 1.313 4.5a10.6 10.6 0 0 0 1.313-4.5zm6.605 0H9.647a11.9 11.9 0 0 1-1.122 4.445 5.34 5.34 0 0 0 3.766-4.445M1.707 6.333H4.35c.087-1.583.48-3.084 1.122-4.445a5.34 5.34 0 0 0-3.765 4.445m3.979 0h2.626a10.6 10.6 0 0 0-1.313-4.501 10.6 10.6 0 0 0-1.313 4.501m2.84-4.445a11.9 11.9 0 0 1 1.121 4.445h2.644a5.34 5.34 0 0 0-3.766-4.445"/></svg>
